src/images/proposal-active.svg

<svg height="22" viewBox="0 0 21 22" width="21" xmlns="http://www.w3.org/2000/svg"><g fill="none" fill-rule="evenodd" transform="translate(-.016079 .711168)"><path d="m16.815877 12.5723145v2.559375h-6.86733869v-2.559375h-8.74717742v5.680664h19.33608871v-5.680664z"/><g transform="translate(9.907258 7.054688)"><path d="m.21063508.03793945c.60544355 0 1.09233871.47578125 1.09233871 1.05820313v.00410156c0 .58652344-.49112903 1.05820313-1.09233871 1.05820313h-.16935484v5.91855468h6.86310484v-8.0390625z"/><path d="m1.85761089 3.7949707 1.61733871 1.27558594 1.87983871-2.78496094"/></g><path d="m13.3822077 12.5354004c-.0973791 0-.1905242-.0328125-.2667339-.0902344l-1.6173387-1.2755859c-.1820565-.1435547-.2074597-.4019531-.0592742-.5783203s.4149193-.2009766.5969758-.0574219l1.2532258.9884766 1.6215726-2.40351567c.1270161-.18867188.3895161-.24199219.5842742-.11894531.194758.12304687.2497984.37734375.1227822.56601562l-1.8798387 2.78496096c-.0677419.0984375-.1693548.1640625-.2879032.1804687-.0254032.0041016-.0465726.0041016-.0677419.0041016z" fill="#2741b4"/><path d="m10.122127 7.09262695h3.2643145l-3.0272177-2.93261718c-.37258065-.3609375-.89334678-.53320313-1.41834678-.46757813l-2.87479839.36503906-1.2108871 1.17304688-1.32096774 1.2796875 2.24395161 2.17382812c.33447581.32402344.78326613.50449219 1.25745968.50859375l3.08225802.02460938c.6054436 0 1.0923388-.47578125 1.0923388-1.05820313v-.00410156c.0042338-.58652344-.4868952-1.06230469-1.0881049-1.06230469z"/><path d="m1.69468303.73732365 2.84231388-.0451161-.07111446 4.48021085-2.84231387.04511609z" transform="matrix(-.70710678 -.70710678 .70710678 -.70710678 3.168963 7.222369)"/><path d="m1.201361 18.252979h19.336089v2.333789h-19.336089z"/><path d="m20.5374496 12.1621582h-3.2981855v-5.06953125c0-.22558593-.1905242-.41015625-.4233871-.41015625h-3.2516129l-2.9044355-2.81367187c-.4614919-.44707031-1.12197578-.66445313-1.76975804-.58242188l-1.73588709.22148438c.03810484-.13535156 0-.28710938-.11008065-.39375l-.96108871-.93105469c-.01693548-.0328125-.04233871-.06152344-.06774193-.08613281l-2.04072581-1.97695313c-.16512097-.15996093-.43185484-.15996093-.59697581 0l-3.21774193 3.1171875c-.16512097.15996094-.16512097.41835938 0 .57832032l2.03649193 1.97695312 1.04153226 1.00898438 2.24395162 2.17382812c.41491935.40195313.96532258.6234375 1.55383064.63164063l2.49375.02050781v2.53886722h-8.32802419c-.23286291 0-.4233871.1845703-.4233871.4101562v8.0103516c0 .2255859.19052419.4101562.4233871.4101562h19.33608871c.2328629 0 .4233871-.1845703.4233871-.4101562v-8.0144531c0-.225586-.1905242-.4101563-.4233871-.4101563zm-4.1449597.4101563v2.1492187h-6.0205645v-2.1492187-2.96542973c.0084677 0 .0211694-.00410157.0296371-.00410157s.0169355-.00410156.0254032-.00410156c.0169355-.00410156.0296371-.00820312.0465726-.01230469.0084677 0 .0169355-.00410156.0254032-.00410156.0211694-.00410156.0423387-.01230469.0592742-.01640625h.0084678c.0211693-.00820312.0465725-.01230469.0677419-.02050781.0084677-.00410156.0127016-.00410156.0211694-.00820313.0169354-.00410156.0296371-.01230468.0465725-.01640625.0084678-.00410156.0169355-.00820312.0254033-.01230468.0127016-.00410157.0254032-.01230469.0381048-.01640625.0084677-.00410157.0169355-.00820313.0254032-.01230469.0127016-.00410156.0254033-.01230469.0381049-.02050781.0084677-.00410157.0169355-.00820313.0254032-.01230469.0127016-.00820313.0254032-.01230469.033871-.02050781.0084677-.00410157.0169354-.00820313.0254032-.01640625.0127016-.00820313.0254032-.01230469.033871-.02050782.0084677-.00410156.0169354-.00820312.0254032-.01640625.0127016-.00820312.0254032-.01640625.0338709-.02460937.0084678-.00410156.0127017-.00820313.0211694-.01640625.0127016-.00820313.0254032-.02050781.0381048-.02871094.0042339-.00410156.0127017-.00820312.0169355-.01230469.0169355-.01230468.033871-.02871093.0508065-.04511718.0042338-.00410157.0042338-.00410157.0084677-.00820313.0127016-.01230469.0296371-.02460937.0423387-.04101562.0042339-.00410157.0127016-.01230469.0169355-.01640625.0084678-.01230469.0211694-.02050782.0296371-.0328125.0042339-.00820313.0127016-.01230469.0169355-.02050782.0084677-.00820312.0169355-.02050781.0254032-.02871093.0042339-.00820313.0127016-.01640625.0169355-.02050782.0084677-.01230468.0169355-.02050781.0254032-.0328125.0042339-.00820312.0127016-.01640625.0169355-.02460937.0084678-.01230469.0169355-.02050781.0254032-.0328125.0042339-.00820313.0127017-.01640625.0169355-.02460938.0084678-.01230468.0169355-.02460937.0211694-.0328125.0042338-.00820312.0084677-.01640625.0169355-.02460937.0084677-.01230469.0169354-.02460938.0211693-.03691406.0042339-.00820313.0084678-.01230469.0127016-.02050782.0084678-.01640625.0169355-.0328125.0254033-.04511718.0042338-.00410157.0042338-.00820313.0084677-.01230469.0084677-.02050781.0211694-.04101563.0296371-.06152344.0042339-.00410156.0042339-.01230469.0084677-.01640625.0084678-.01640625.0127016-.02871094.0169355-.04511719.0042339-.00820312.0042339-.01640625.0084678-.02460937.0042338-.01230469.0084677-.02871094.0127016-.04101563.0042338-.00820312.0042338-.01640625.0084677-.02871093.0042339-.01230469.0084678-.02460938.0127016-.04101563.0042339-.00820312.0042339-.02050781.0084678-.02871094.0042338-.01230468.0084677-.02460937.0084677-.04101562.0042339-.00820313.0042339-.02050781.0042339-.02871094.0042339-.01230469.0042339-.02871094.0084677-.04101562 0-.00820313.0042339-.02050782.0042339-.02871094 0-.01230469.0042339-.02871094.0042339-.04101563 0-.00820312.0042338-.01640625.0042338-.02871093 0-.01640625.0042339-.0328125.0042339-.04921875 0-.00820313 0-.01640625 0-.02460938 0-.02460937 0-.04921875 0-.07382812v-.00410157c0-.02871093 0-.05332031-.0042339-.08203125 0-.00820312 0-.01640625 0-.02460937 0-.01640625-.0042338-.03691406-.0042338-.05332031 0-.00820313-.0042339-.02050782-.0042339-.02871094-.0042339-.01640625-.0042339-.0328125-.0084677-.04921875 0-.01230469-.0042339-.02050781-.0042339-.0328125-.0042339-.01640625-.0084678-.0328125-.0084678-.04921875-.0042338-.00820313-.0042338-.02050781-.0084677-.02871094-.0042339-.01640625-.0084677-.0328125-.0127016-.04921875-.0042339-.00820312-.0042339-.01640625-.0084678-.02871094-.0042338-.01640625-.0127016-.03691406-.0169354-.05332031-.0042339-.00820312-.0042339-.01230469-.0084678-.02050781-.0084677-.02460938-.0169355-.04921875-.0296371-.07382813 0-.00410156-.0042338-.00820312-.0084677-.01230468-.0084678-.02050782-.0169355-.03691407-.0254032-.05742188 0 0 0-.00410156-.0042339-.00410156h1.9052419 3.0060484zm-12.72278224-11.58691411 1.44375 1.39863281-1.2828629 1.24277344-1.33790323 1.29609375-1.43951613-1.39863281zm2.03225807 1.98925781.44455645.43066407-2.60806452 2.5265625-.44455645-.43066407zm.37681451 5.41816407-1.94334677-1.88261719.66471774-.64394531 1.46491935-1.41914063 2.73084678-.34863281c.38951613-.04921875.78326613.08203125 1.06270166.34863281l2.3032258 2.23125h-2.2439517-1.64697576c-.2328629 0-.4233871.18457031-.4233871.41015625s.1905242.41015625.4233871.41015625h1.64697576c.3683468 0 .6689517.29121094.6689517.64804688v.00410156c0 .11074219-.0296371.21738281-.0804436.30761719-.1143145.20097656-.3344758.34042968-.5885081.34042968l-3.08225802-.02460937c-.35987903.00820312-.69858871-.13125-.95685484-.38144531zm-4.45403226 4.58964843h7.9046371v1.7390625h-3.62419355c-.2328629 0-.42338709.1845703-.42338709.4101563 0 .2255859.19052419.4101562.42338709.4101562h11.40604837c.2328629 0 .4233871-.1845703.4233871-.4101562 0-.225586-.1905242-.4101563-.4233871-.4101563h-.0762097v-1.7390625h2.8747984v4.8603516h-18.48508062zm18.48931452 7.1941406h-18.48931452v-1.5134765h18.48931452z" fill="#2741b4" fill-rule="nonzero"/></g></svg>

<?xml version="1.0" encoding="UTF-8"?>
<svg width="21px" height="22px" viewBox="0 0 21 22" version="1.1" xmlns="http://www.w3.org/2000/svg" xmlns:xlink="http://www.w3.org/1999/xlink">
    <!-- Generator: Sketch 54.1 (76490) - https://sketchapp.com -->
    <title>vote</title>
    <desc>Created with Sketch.</desc>
    <g id="Symbols" stroke="none" stroke-width="1" fill="none" fill-rule="evenodd">
        <g id="side-bar-detail-after" transform="translate(-38.000000, -483.000000)">
            <g id="Group-2" transform="translate(37.000000, 483.000000)">
                <g id="vote">
                    <g transform="translate(0.983921, 0.711168)">
                        <polygon id="Path" points="16.815877 12.5723145 16.815877 15.1316895 9.94853831 15.1316895 9.94853831 12.5723145 1.20136089 12.5723145 1.20136089 18.2529785 20.5374496 18.2529785 20.5374496 12.5723145"></polygon>
                        <g id="Group" transform="translate(9.907258, 7.054688)">
                            <path d="M0.210635081,0.0379394531 C0.816078629,0.0379394531 1.30297379,0.513720703 1.30297379,1.09614258 L1.30297379,1.10024414 C1.30297379,1.68676758 0.811844758,2.15844727 0.210635081,2.15844727 L0.0412802419,2.15844727 L0.0412802419,8.07700195 L6.90438508,8.07700195 L6.90438508,0.0379394531 L0.210635081,0.0379394531 L0.210635081,0.0379394531 Z" id="Path"></path>
                            <polyline id="Path" points="1.85761089 3.7949707 3.4749496 5.07055664 5.35478831 2.2855957"></polyline>
                        </g>
                        <path d="M13.3822077,12.5354004 C13.2848286,12.5354004 13.1916835,12.5025879 13.1154738,12.445166 L11.4981351,11.1695801 C11.3160786,11.0260254 11.2906754,10.767627 11.4388609,10.5912598 C11.5870464,10.4148926 11.8537802,10.3902832 12.0358367,10.5338379 L13.2890625,11.5223145 L14.9106351,9.11879883 C15.0376512,8.93012695 15.3001512,8.87680664 15.4949093,8.99985352 C15.6896673,9.12290039 15.7447077,9.37719727 15.6176915,9.56586914 L13.7378528,12.3508301 C13.6701109,12.4492676 13.568498,12.5148926 13.4499496,12.5312988 C13.4245464,12.5354004 13.403377,12.5354004 13.3822077,12.5354004 Z" id="Path" fill="#2741B4"></path>
                        <path d="M10.122127,7.09262695 L13.3864415,7.09262695 L10.3592238,4.16000977 C9.98664315,3.79907227 9.46587702,3.62680664 8.94087702,3.69243164 L6.06607863,4.0574707 L4.85519153,5.23051758 L3.53422379,6.51020508 L5.7781754,8.6840332 C6.11265121,9.00805664 6.56144153,9.18852539 7.03563508,9.19262695 L10.1178931,9.21723633 C10.7233367,9.21723633 11.2102319,8.74145508 11.2102319,8.1590332 L11.2102319,8.15493164 C11.2144657,7.5684082 10.7233367,7.09262695 10.122127,7.09262695 Z" id="Path"></path>
                        <polygon id="Rectangle" transform="translate(3.080283, 2.954871) rotate(-135.000000) translate(-3.080283, -2.954871) " points="1.69468303 0.737323647 4.53699691 0.692207553 4.46588245 5.1724184 1.62356858 5.21753449"></polygon>
                        <rect id="Rectangle" x="1.20136089" y="18.2529785" width="19.3360887" height="2.33378906"></rect>
                        <path d="M20.5374496,12.1621582 L17.2392641,12.1621582 L17.2392641,7.09262695 C17.2392641,6.86704102 17.0487399,6.6824707 16.815877,6.6824707 L13.5642641,6.6824707 L10.6598286,3.86879883 C10.1983367,3.42172852 9.53785282,3.2043457 8.89007056,3.28637695 L7.15418347,3.50786133 C7.19228831,3.37250977 7.15418347,3.22075195 7.04410282,3.11411133 L6.08301411,2.18305664 C6.06607863,2.15024414 6.0406754,2.1215332 6.01527218,2.09692383 L3.97454637,0.119970703 C3.8094254,-0.0399902344 3.54269153,-0.0399902344 3.37757056,0.119970703 L0.159828629,3.2371582 C-0.00529233871,3.39711914 -0.00529233871,3.65551758 0.159828629,3.81547852 L2.19632056,5.79243164 L2.19632056,5.79243164 L3.23785282,6.80141602 L5.48180444,8.97524414 C5.89672379,9.37719727 6.44712702,9.59868164 7.03563508,9.60688477 L9.52938508,9.62739258 L9.52938508,12.1662598 L1.20136089,12.1662598 C0.968497984,12.1662598 0.77797379,12.3508301 0.77797379,12.576416 L0.77797379,20.5867676 C0.77797379,20.8123535 0.968497984,20.9969238 1.20136089,20.9969238 L20.5374496,20.9969238 C20.7703125,20.9969238 20.9608367,20.8123535 20.9608367,20.5867676 L20.9608367,12.5723145 C20.9608367,12.3467285 20.7703125,12.1621582 20.5374496,12.1621582 Z M16.3924899,12.5723145 L16.3924899,14.7215332 L10.3719254,14.7215332 L10.3719254,12.5723145 L10.3719254,9.60688477 C10.3803931,9.60688477 10.3930948,9.6027832 10.4015625,9.6027832 C10.4100302,9.6027832 10.418498,9.59868164 10.4269657,9.59868164 C10.4439012,9.59458008 10.4566028,9.59047852 10.4735383,9.58637695 C10.482006,9.58637695 10.4904738,9.58227539 10.4989415,9.58227539 C10.5201109,9.57817383 10.5412802,9.5699707 10.5582157,9.56586914 C10.5624496,9.56586914 10.5624496,9.56586914 10.5666835,9.56586914 C10.5878528,9.55766602 10.613256,9.55356445 10.6344254,9.54536133 C10.6428931,9.54125977 10.647127,9.54125977 10.6555948,9.5371582 C10.6725302,9.53305664 10.6852319,9.52485352 10.7021673,9.52075195 C10.7106351,9.51665039 10.7191028,9.51254883 10.7275706,9.50844727 C10.7402722,9.5043457 10.7529738,9.49614258 10.7656754,9.49204102 C10.7741431,9.48793945 10.7826109,9.48383789 10.7910786,9.47973633 C10.8037802,9.47563477 10.8164819,9.46743164 10.8291835,9.45922852 C10.8376512,9.45512695 10.846119,9.45102539 10.8545867,9.44692383 C10.8672883,9.4387207 10.8799899,9.43461914 10.8884577,9.42641602 C10.8969254,9.42231445 10.9053931,9.41821289 10.9138609,9.41000977 C10.9265625,9.40180664 10.9392641,9.39770508 10.9477319,9.38950195 C10.9561996,9.38540039 10.9646673,9.38129883 10.9731351,9.3730957 C10.9858367,9.36489258 10.9985383,9.35668945 11.007006,9.34848633 C11.0154738,9.34438477 11.0197077,9.3402832 11.0281754,9.33208008 C11.040877,9.32387695 11.0535786,9.31157227 11.0662802,9.30336914 C11.0705141,9.29926758 11.0789819,9.29516602 11.0832157,9.29106445 C11.1001512,9.27875977 11.1170867,9.26235352 11.1340222,9.24594727 C11.138256,9.2418457 11.138256,9.2418457 11.1424899,9.23774414 C11.1551915,9.22543945 11.172127,9.21313477 11.1848286,9.19672852 C11.1890625,9.19262695 11.1975302,9.18442383 11.2017641,9.18032227 C11.2102319,9.16801758 11.2229335,9.15981445 11.2314012,9.14750977 C11.2356351,9.13930664 11.2441028,9.13520508 11.2483367,9.12700195 C11.2568044,9.11879883 11.2652722,9.10649414 11.2737399,9.09829102 C11.2779738,9.09008789 11.2864415,9.08188477 11.2906754,9.0777832 C11.2991431,9.06547852 11.3076109,9.05727539 11.3160786,9.0449707 C11.3203125,9.03676758 11.3287802,9.02856445 11.3330141,9.02036133 C11.3414819,9.00805664 11.3499496,8.99985352 11.3584173,8.98754883 C11.3626512,8.9793457 11.371119,8.97114258 11.3753528,8.96293945 C11.3838206,8.95063477 11.3922883,8.93833008 11.3965222,8.93012695 C11.400756,8.92192383 11.4049899,8.9137207 11.4134577,8.90551758 C11.4219254,8.89321289 11.4303931,8.8809082 11.434627,8.86860352 C11.4388609,8.86040039 11.4430948,8.85629883 11.4473286,8.8480957 C11.4557964,8.83168945 11.4642641,8.8152832 11.4727319,8.80297852 C11.4769657,8.79887695 11.4769657,8.79477539 11.4811996,8.79067383 C11.4896673,8.77016602 11.502369,8.7496582 11.5108367,8.72915039 C11.5150706,8.72504883 11.5150706,8.7168457 11.5193044,8.71274414 C11.5277722,8.69633789 11.532006,8.6840332 11.5362399,8.66762695 C11.5404738,8.65942383 11.5404738,8.6512207 11.5447077,8.64301758 C11.5489415,8.63071289 11.5531754,8.61430664 11.5574093,8.60200195 C11.5616431,8.59379883 11.5616431,8.5855957 11.565877,8.57329102 C11.5701109,8.56098633 11.5743448,8.54868164 11.5785786,8.53227539 C11.5828125,8.52407227 11.5828125,8.51176758 11.5870464,8.50356445 C11.5912802,8.49125977 11.5955141,8.47895508 11.5955141,8.46254883 C11.599748,8.4543457 11.599748,8.44204102 11.599748,8.43383789 C11.6039819,8.4215332 11.6039819,8.40512695 11.6082157,8.39282227 C11.6082157,8.38461914 11.6124496,8.37231445 11.6124496,8.36411133 C11.6124496,8.35180664 11.6166835,8.33540039 11.6166835,8.3230957 C11.6166835,8.31489258 11.6209173,8.30668945 11.6209173,8.29438477 C11.6209173,8.27797852 11.6251512,8.26157227 11.6251512,8.24516602 C11.6251512,8.23696289 11.6251512,8.22875977 11.6251512,8.22055664 C11.6251512,8.19594727 11.6251512,8.17133789 11.6251512,8.14672852 L11.6251512,8.14262695 C11.6251512,8.11391602 11.6251512,8.08930664 11.6209173,8.0605957 C11.6209173,8.05239258 11.6209173,8.04418945 11.6209173,8.03598633 C11.6209173,8.01958008 11.6166835,7.99907227 11.6166835,7.98266602 C11.6166835,7.97446289 11.6124496,7.9621582 11.6124496,7.95395508 C11.6082157,7.93754883 11.6082157,7.92114258 11.6039819,7.90473633 C11.6039819,7.89243164 11.599748,7.88422852 11.599748,7.87192383 C11.5955141,7.85551758 11.5912802,7.83911133 11.5912802,7.82270508 C11.5870464,7.81450195 11.5870464,7.80219727 11.5828125,7.79399414 C11.5785786,7.77758789 11.5743448,7.76118164 11.5701109,7.74477539 C11.565877,7.73657227 11.565877,7.72836914 11.5616431,7.71606445 C11.5574093,7.6996582 11.5489415,7.67915039 11.5447077,7.66274414 C11.5404738,7.65454102 11.5404738,7.65043945 11.5362399,7.64223633 C11.5277722,7.61762695 11.5193044,7.59301758 11.5066028,7.5684082 C11.5066028,7.56430664 11.502369,7.56020508 11.4981351,7.55610352 C11.4896673,7.5355957 11.4811996,7.51918945 11.4727319,7.49868164 C11.4727319,7.49868164 11.4727319,7.49458008 11.468498,7.49458008 L13.3737399,7.49458008 L16.3797883,7.49458008 L16.3924899,12.5723145 L16.3924899,12.5723145 Z M3.66970766,0.985400391 L5.11345766,2.3840332 L3.83059476,3.62680664 L2.49269153,4.92290039 L1.0531754,3.52426758 L3.66970766,0.985400391 Z M5.70196573,2.9746582 L6.14652218,3.40532227 L3.53845766,5.93188477 L3.09390121,5.5012207 L5.70196573,2.9746582 Z M6.07878024,8.39282227 L4.13543347,6.51020508 L4.80015121,5.86625977 L6.26507056,4.44711914 L8.99591734,4.09848633 C9.38543347,4.04926758 9.77918347,4.18051758 10.058619,4.44711914 L12.3618448,6.67836914 L10.1178931,6.67836914 L8.47091734,6.67836914 C8.23805444,6.67836914 8.04753024,6.86293945 8.04753024,7.08852539 C8.04753024,7.31411133 8.23805444,7.49868164 8.47091734,7.49868164 L10.1178931,7.49868164 C10.4862399,7.49868164 10.7868448,7.78989258 10.7868448,8.14672852 L10.7868448,8.15083008 C10.7868448,8.26157227 10.7572077,8.36821289 10.7064012,8.45844727 C10.5920867,8.65942383 10.3719254,8.79887695 10.1178931,8.79887695 L7.03563508,8.77426758 C6.67575605,8.7824707 6.33704637,8.64301758 6.07878024,8.39282227 Z M1.62474798,12.9824707 L9.52938508,12.9824707 L9.52938508,14.7215332 L5.90519153,14.7215332 C5.67232863,14.7215332 5.48180444,14.9061035 5.48180444,15.1316895 C5.48180444,15.3572754 5.67232863,15.5418457 5.90519153,15.5418457 L17.3112399,15.5418457 C17.5441028,15.5418457 17.734627,15.3572754 17.734627,15.1316895 C17.734627,14.9061035 17.5441028,14.7215332 17.3112399,14.7215332 L17.2350302,14.7215332 L17.2350302,12.9824707 L20.1098286,12.9824707 L20.1098286,17.8428223 L1.62474798,17.8428223 L1.62474798,12.9824707 Z M20.1140625,20.1766113 L1.62474798,20.1766113 L1.62474798,18.6631348 L20.1140625,18.6631348 L20.1140625,20.1766113 L20.1140625,20.1766113 Z" id="Shape" fill="#2741B4" fill-rule="nonzero"></path>
                    </g>
                </g>
            </g>
        </g>
    </g>
</svg>
